X: 21933
T: Kittens In The Plate
R: jig
M: 6/8
K: Dmajor
|:baf afe|~d3 edB|A2B AFE|FED E3|
baf afe|~d3 edB|AdB AFE|FAB d3:|
|:ABd ~f3|efa ~b3|d'ba baf|ede ~f3|
ABd ~f3|efa ~b3|d'ba baf|edB d3:|

